X: 1
T: Miss Crawford
M: 4/4
L: 1/8
R: reel
K: Gdor
|:dc|BG^FG DGFG| A=F~F2 AFcF|BG^FG DGFG|1cAfA Gc:|2cAfA G2G2||
Ggg^f gag=f| dfcf ec (3cBA|Ggg^f gag=f|cAfA G2G2|
(3gab (3fga gafg|dfcf ec (3cBA|(3BAG (3cBA (3Bcd (3efg|(3fed (3cBA G2||
